( pcb2gcode 1.1.4 )

( This file uses 5 drill bit sizes. )

G94     ( Inches per minute feed rate. )
G20     ( Units == INCHES.             )
G90     ( Absolute coordinates.        )
S6000  ( RPM spindle speed.           )

G00 Z1.96850 ( Retract )
T1
M5      ( Spindle stop.                )
M6      ( Tool change.                 )
(MSG, CHANGE TOOL BIT: to drill size 0.80000 mm)
M0      ( Temporary machine stop.      )
M3      ( Spindle on clockwise.        )

G81 R0.11811 Z-0.19685 F19.68504 X3.55000 Y3.25000
X3.55000 Y3.15000
X3.55000 Y3.05000
X3.55000 Y0.55000
X3.55000 Y0.45000
X3.55000 Y0.35000
X0.85000 Y3.25000
X0.85000 Y3.15000
X0.85000 Y3.05000
X0.85000 Y0.55000
X0.85000 Y0.45000
X0.85000 Y0.35000


G00 Z1.96850 ( Retract )
T2
M5      ( Spindle stop.                )
M6      ( Tool change.                 )
(MSG, CHANGE TOOL BIT: to drill size 1.00100 mm)
M0      ( Temporary machine stop.      )
M3      ( Spindle on clockwise.        )

G81 R0.11811 Z-0.19685 F19.68504 X5.20000 Y5.05000
X5.20000 Y4.95000
X5.20000 Y3.05000
X5.20000 Y2.95000
X5.20000 Y2.35000
X5.20000 Y2.25000
X5.20000 Y0.35000
X5.20000 Y0.25000
X5.10000 Y4.50000
X5.10000 Y4.10000
X5.10000 Y3.95000
X5.10000 Y3.55000
X5.10000 Y1.80000
X5.10000 Y1.40000
X5.10000 Y1.25000
X5.10000 Y0.85000
X5.05000 Y3.05000
X5.05000 Y2.95000
X5.05000 Y0.35000
X5.05000 Y0.25000
X5.00000 Y5.05000
X5.00000 Y4.95000
X5.00000 Y2.35000
X5.00000 Y2.25000
X4.95000 Y3.95000
X4.95000 Y3.55000
X4.95000 Y2.85000
X4.95000 Y1.25000
X4.95000 Y0.85000
X4.95000 Y0.15000
X4.90000 Y4.45000
X4.90000 Y1.75000
X4.55000 Y2.85000
X4.55000 Y0.15000
X4.50000 Y4.45000
X4.50000 Y1.75000
X4.45000 Y3.75000
X4.45000 Y3.45000
X4.45000 Y3.35000
X4.45000 Y3.25000
X4.45000 Y3.15000
X4.45000 Y1.05000
X4.45000 Y0.75000
X4.45000 Y0.65000
X4.45000 Y0.55000
X4.45000 Y0.45000
X4.05000 Y3.75000
X4.05000 Y3.45000
X4.05000 Y3.35000
X4.05000 Y3.25000
X4.05000 Y3.15000
X4.05000 Y1.05000
X4.05000 Y0.75000
X4.05000 Y0.65000
X4.05000 Y0.55000
X4.05000 Y0.45000
X3.90000 Y4.20000
X3.90000 Y1.50000
X3.50000 Y4.20000
X3.50000 Y3.80000
X3.50000 Y3.70000
X3.50000 Y3.60000
X3.50000 Y3.50000
X3.50000 Y2.80000
X3.50000 Y1.50000
X3.50000 Y1.10000
X3.50000 Y1.00000
X3.50000 Y0.90000
X3.50000 Y0.80000
X3.50000 Y0.10000
X3.10000 Y3.80000
X3.10000 Y3.70000
X3.10000 Y3.60000
X3.10000 Y3.50000
X3.10000 Y2.80000
X3.10000 Y1.10000
X3.10000 Y1.00000
X3.10000 Y0.90000
X3.10000 Y0.80000
X3.10000 Y0.10000
X3.05000 Y4.05000
X3.05000 Y3.95000
X3.05000 Y1.35000
X3.05000 Y1.25000
X3.00000 Y5.20000
X3.00000 Y5.00000
X3.00000 Y3.00000
X3.00000 Y2.80000
X3.00000 Y2.50000
X3.00000 Y2.30000
X3.00000 Y0.30000
X3.00000 Y0.10000
X2.90000 Y5.20000
X2.90000 Y5.00000
X2.90000 Y3.00000
X2.90000 Y2.80000
X2.90000 Y2.50000
X2.90000 Y2.30000
X2.90000 Y0.30000
X2.90000 Y0.10000
X2.85000 Y4.05000
X2.85000 Y3.95000
X2.85000 Y1.35000
X2.85000 Y1.25000
X2.50000 Y5.05000
X2.50000 Y4.95000
X2.50000 Y3.05000
X2.50000 Y2.95000
X2.50000 Y2.35000
X2.50000 Y2.25000
X2.50000 Y0.35000
X2.50000 Y0.25000
X2.40000 Y4.50000
X2.40000 Y4.10000
X2.40000 Y3.95000
X2.40000 Y3.55000
X2.40000 Y1.80000
X2.40000 Y1.40000
X2.40000 Y1.25000
X2.40000 Y0.85000
X2.35000 Y3.05000
X2.35000 Y2.95000
X2.35000 Y0.35000
X2.35000 Y0.25000
X2.30000 Y5.05000
X2.30000 Y4.95000
X2.30000 Y2.35000
X2.30000 Y2.25000
X2.25000 Y3.95000
X2.25000 Y3.55000
X2.25000 Y2.85000
X2.25000 Y1.25000
X2.25000 Y0.85000
X2.25000 Y0.15000
X2.20000 Y4.45000
X2.20000 Y1.75000
X1.85000 Y2.85000
X1.85000 Y0.15000
X1.80000 Y4.45000
X1.80000 Y1.75000
X1.75000 Y3.75000
X1.75000 Y3.45000
X1.75000 Y3.35000
X1.75000 Y3.25000
X1.75000 Y3.15000
X1.75000 Y1.05000
X1.75000 Y0.75000
X1.75000 Y0.65000
X1.75000 Y0.55000
X1.75000 Y0.45000
X1.35000 Y3.75000
X1.35000 Y3.45000
X1.35000 Y3.35000
X1.35000 Y3.25000
X1.35000 Y3.15000
X1.35000 Y1.05000
X1.35000 Y0.75000
X1.35000 Y0.65000
X1.35000 Y0.55000
X1.35000 Y0.45000
X1.20000 Y4.20000
X1.20000 Y1.50000
X0.80000 Y4.20000
X0.80000 Y3.80000
X0.80000 Y3.70000
X0.80000 Y3.60000
X0.80000 Y3.50000
X0.80000 Y2.80000
X0.80000 Y1.50000
X0.80000 Y1.10000
X0.80000 Y1.00000
X0.80000 Y0.90000
X0.80000 Y0.80000
X0.80000 Y0.10000
X0.40000 Y3.80000
X0.40000 Y3.70000
X0.40000 Y3.60000
X0.40000 Y3.50000
X0.40000 Y2.80000
X0.40000 Y1.10000
X0.40000 Y1.00000
X0.40000 Y0.90000
X0.40000 Y0.80000
X0.40000 Y0.10000
X0.35000 Y4.05000
X0.35000 Y3.95000
X0.35000 Y1.35000
X0.35000 Y1.25000
X0.30000 Y5.20000
X0.30000 Y5.00000
X0.30000 Y3.00000
X0.30000 Y2.80000
X0.30000 Y2.50000
X0.30000 Y2.30000
X0.30000 Y0.30000
X0.30000 Y0.10000
X0.20000 Y5.20000
X0.20000 Y5.00000
X0.20000 Y3.00000
X0.20000 Y2.80000
X0.20000 Y2.50000
X0.20000 Y2.30000
X0.20000 Y0.30000
X0.20000 Y0.10000
X0.15000 Y4.05000
X0.15000 Y3.95000
X0.15000 Y1.35000
X0.15000 Y1.25000


G00 Z1.96850 ( Retract )
T3
M5      ( Spindle stop.                )
M6      ( Tool change.                 )
(MSG, CHANGE TOOL BIT: to drill size 1.01600 mm)
M0      ( Temporary machine stop.      )
M3      ( Spindle on clockwise.        )

G81 R0.11811 Z-0.19685 F19.68504 X4.75000 Y3.45000
X4.75000 Y3.35000
X4.75000 Y3.25000
X4.75000 Y3.15000
X4.75000 Y3.05000
X4.75000 Y0.75000
X4.75000 Y0.65000
X4.75000 Y0.55000
X4.75000 Y0.45000
X4.75000 Y0.35000
X4.65000 Y4.95000
X4.65000 Y4.85000
X4.65000 Y4.75000
X4.65000 Y4.65000
X4.65000 Y4.55000
X4.65000 Y4.35000
X4.65000 Y4.25000
X4.65000 Y4.15000
X4.65000 Y4.05000
X4.65000 Y3.45000
X4.65000 Y3.35000
X4.65000 Y3.25000
X4.65000 Y3.15000
X4.65000 Y3.05000
X4.65000 Y2.25000
X4.65000 Y2.15000
X4.65000 Y2.05000
X4.65000 Y1.95000
X4.65000 Y1.85000
X4.65000 Y1.65000
X4.65000 Y1.55000
X4.65000 Y1.45000
X4.65000 Y1.35000
X4.65000 Y0.75000
X4.65000 Y0.65000
X4.65000 Y0.55000
X4.65000 Y0.45000
X4.65000 Y0.35000
X4.45000 Y4.85000
X4.45000 Y2.15000
X4.35000 Y4.85000
X4.35000 Y2.90000
X4.35000 Y2.80000
X4.35000 Y2.15000
X4.35000 Y0.20000
X4.35000 Y0.10000
X4.25000 Y4.85000
X4.25000 Y2.90000
X4.25000 Y2.80000
X4.25000 Y2.15000
X4.25000 Y0.20000
X4.25000 Y0.10000
X4.15000 Y2.90000
X4.15000 Y2.80000
X4.15000 Y0.20000
X4.15000 Y0.10000
X4.00000 Y4.45000
X4.00000 Y1.75000
X3.90000 Y4.45000
X3.90000 Y1.75000
X3.35000 Y4.65000
X3.35000 Y4.55000
X3.35000 Y4.45000
X3.35000 Y3.95000
X3.35000 Y1.95000
X3.35000 Y1.85000
X3.35000 Y1.75000
X3.35000 Y1.25000
X3.25000 Y4.95000
X3.25000 Y4.85000
X3.25000 Y3.95000
X3.25000 Y3.15000
X3.25000 Y3.05000
X3.25000 Y2.25000
X3.25000 Y2.15000
X3.25000 Y1.25000
X3.25000 Y0.45000
X3.25000 Y0.35000
X3.05000 Y4.35000
X3.05000 Y4.25000
X3.05000 Y1.65000
X3.05000 Y1.55000
X2.95000 Y4.35000
X2.95000 Y4.25000
X2.95000 Y3.70000
X2.95000 Y3.60000
X2.95000 Y3.50000
X2.95000 Y1.65000
X2.95000 Y1.55000
X2.95000 Y1.00000
X2.95000 Y0.90000
X2.95000 Y0.80000
X2.85000 Y4.35000
X2.85000 Y4.25000
X2.85000 Y3.70000
X2.85000 Y3.60000
X2.85000 Y3.50000
X2.85000 Y1.65000
X2.85000 Y1.55000
X2.85000 Y1.00000
X2.85000 Y0.90000
X2.85000 Y0.80000
X2.05000 Y3.45000
X2.05000 Y3.35000
X2.05000 Y3.25000
X2.05000 Y3.15000
X2.05000 Y3.05000
X2.05000 Y0.75000
X2.05000 Y0.65000
X2.05000 Y0.55000
X2.05000 Y0.45000
X2.05000 Y0.35000
X1.95000 Y4.95000
X1.95000 Y4.85000
X1.95000 Y4.75000
X1.95000 Y4.65000
X1.95000 Y4.55000
X1.95000 Y4.35000
X1.95000 Y4.25000
X1.95000 Y4.15000
X1.95000 Y4.05000
X1.95000 Y3.45000
X1.95000 Y3.35000
X1.95000 Y3.25000
X1.95000 Y3.15000
X1.95000 Y3.05000
X1.95000 Y2.25000
X1.95000 Y2.15000
X1.95000 Y2.05000
X1.95000 Y1.95000
X1.95000 Y1.85000
X1.95000 Y1.65000
X1.95000 Y1.55000
X1.95000 Y1.45000
X1.95000 Y1.35000
X1.95000 Y0.75000
X1.95000 Y0.65000
X1.95000 Y0.55000
X1.95000 Y0.45000
X1.95000 Y0.35000
X1.75000 Y4.85000
X1.75000 Y2.15000
X1.65000 Y4.85000
X1.65000 Y2.90000
X1.65000 Y2.80000
X1.65000 Y2.15000
X1.65000 Y0.20000
X1.65000 Y0.10000
X1.55000 Y4.85000
X1.55000 Y2.90000
X1.55000 Y2.80000
X1.55000 Y2.15000
X1.55000 Y0.20000
X1.55000 Y0.10000
X1.45000 Y2.90000
X1.45000 Y2.80000
X1.45000 Y0.20000
X1.45000 Y0.10000
X1.30000 Y4.45000
X1.30000 Y1.75000
X1.20000 Y4.45000
X1.20000 Y1.75000
X0.65000 Y4.65000
X0.65000 Y4.55000
X0.65000 Y4.45000
X0.65000 Y3.95000
X0.65000 Y1.95000
X0.65000 Y1.85000
X0.65000 Y1.75000
X0.65000 Y1.25000
X0.55000 Y4.95000
X0.55000 Y4.85000
X0.55000 Y3.95000
X0.55000 Y3.15000
X0.55000 Y3.05000
X0.55000 Y2.25000
X0.55000 Y2.15000
X0.55000 Y1.25000
X0.55000 Y0.45000
X0.55000 Y0.35000
X0.35000 Y4.35000
X0.35000 Y4.25000
X0.35000 Y1.65000
X0.35000 Y1.55000
X0.25000 Y4.35000
X0.25000 Y4.25000
X0.25000 Y3.70000
X0.25000 Y3.60000
X0.25000 Y3.50000
X0.25000 Y1.65000
X0.25000 Y1.55000
X0.25000 Y1.00000
X0.25000 Y0.90000
X0.25000 Y0.80000
X0.15000 Y4.35000
X0.15000 Y4.25000
X0.15000 Y3.70000
X0.15000 Y3.60000
X0.15000 Y3.50000
X0.15000 Y1.65000
X0.15000 Y1.55000
X0.15000 Y1.00000
X0.15000 Y0.90000
X0.15000 Y0.80000


G00 Z1.96850 ( Retract )
T4
M5      ( Spindle stop.                )
M6      ( Tool change.                 )
(MSG, CHANGE TOOL BIT: to drill size 1.50000 mm)
M0      ( Temporary machine stop.      )
M3      ( Spindle on clockwise.        )

G81 R0.11811 Z-0.19685 F19.68504 X3.68622 Y5.20000
X3.68622 Y2.50000
X3.56811 Y5.20000
X3.56811 Y2.50000
X3.45000 Y5.20000
X3.45000 Y2.50000
X3.33189 Y5.20000
X3.33189 Y2.50000
X3.21378 Y5.20000
X3.21378 Y2.50000
X0.98622 Y5.20000
X0.98622 Y2.50000
X0.86811 Y5.20000
X0.86811 Y2.50000
X0.75000 Y5.20000
X0.75000 Y2.50000
X0.63189 Y5.20000
X0.63189 Y2.50000
X0.51378 Y5.20000
X0.51378 Y2.50000


G00 Z1.96850 ( Retract )
T5
M5      ( Spindle stop.                )
M6      ( Tool change.                 )
(MSG, CHANGE TOOL BIT: to drill size 2.49900 mm)
M0      ( Temporary machine stop.      )
M3      ( Spindle on clockwise.        )

G81 R0.11811 Z-0.19685 F19.68504 X5.05000 Y4.70000
X5.05000 Y3.30000
X5.05000 Y2.00000
X5.05000 Y0.60000
X2.95000 Y4.70000
X2.95000 Y3.30000
X2.95000 Y2.00000
X2.95000 Y0.60000
X2.35000 Y4.70000
X2.35000 Y3.30000
X2.35000 Y2.00000
X2.35000 Y0.60000
X0.25000 Y4.70000
X0.25000 Y3.30000
X0.25000 Y2.00000
X0.25000 Y0.60000


G00 Z1.96850 ( All done -- retract )

M9 ( Coolant off. )
M2 ( Program end. )

